src/assets/filled/Square3.svg

<?xml version="1.0" encoding="UTF-8"?>
<svg width="24" height="24" viewBox="0 0 24 24" xmlns="http://www.w3.org/2000/svg">
 <path d="m12 18.5v0.88c0 1.87-0.75 2.62-2.63 2.62h-4.75c-1.45 0-2.62-1.17-2.62-2.62v-4.75c0-1.88 0.75-2.63 2.62-2.63h0.88v3.5c0 1.66 1.34 3 3 3h3.5z"/>
 <path d="m17 13.5v0.87c0 1.45-1.18 2.63-2.63 2.63h-4.75c-1.87 0-2.62-0.75-2.62-2.63v-4.75c0-1.45 1.17-2.62 2.62-2.62h0.88v3.5c0 1.66 1.34 3 3 3h3.5z"/>
 <path d="M22 4.62V9.37C22 11.25 21.25 12 19.37 12H14.62C12.75 12 12 11.25 12 9.37V4.62C12 2.75 12.75 2 14.62 2H19.37C21.25 2 22 2.75 22 4.62Z"/>
</svg>

<svg width="24" height="24" viewBox="0 0 24 24"  xmlns="http://www.w3.org/2000/svg">
<path d="M12 18.5V19.38C12 21.25 11.25 22 9.37 22H4.62C3.17 22 2 20.83 2 19.38V14.63C2 12.75 2.75 12 4.62 12H5.5V15.5C5.5 17.16 6.84 18.5 8.5 18.5H12Z" />
<path d="M17 13.5V14.37C17 15.82 15.82 17 14.37 17H9.62C7.75 17 7 16.25 7 14.37V9.62C7 8.17 8.17 7 9.62 7H10.5V10.5C10.5 12.16 11.84 13.5 13.5 13.5H17Z" />
<path d="M22 4.62V9.37C22 11.25 21.25 12 19.37 12H14.62C12.75 12 12 11.25 12 9.37V4.62C12 2.75 12.75 2 14.62 2H19.37C21.25 2 22 2.75 22 4.62Z" />
</svg>
